raw/symbols/bal.svg

<svg width="42" height="42" viewBox="0 0 42 42" fill="none" xmlns="http://www.w3.org/2000/svg">
<path fill-rule="evenodd" clip-rule="evenodd" d="M21 0C32.5962 0 42 9.4038 42 21C42 32.5962 32.5962 42 21 42C9.4038 42 0 32.5962 0 21C0 9.4038 9.4038 0 21 0Z" fill="#222222"/>
<path d="M20.9998 30.1521C14.284 30.1521 8.84082 28.2117 8.84082 25.6119C8.84082 24.2553 10.3234 23.0331 12.6964 22.1721C14.5486 23.3607 17.6566 23.9697 21.1804 23.9697C24.6202 23.9697 27.661 23.2263 29.53 22.0881C31.7686 22.9407 33.1588 24.1293 33.1588 25.4397C33.1588 28.0437 27.7156 30.1521 20.9998 30.1521Z" fill="#F3F3F3"/>
<path d="M21.0711 23.3877C15.9807 23.3877 11.8521 21.7917 11.8521 19.8219C11.8521 18.7299 13.1247 17.7513 15.1197 17.1003C16.5435 17.8437 18.6771 18.3183 21.0711 18.3183C23.4651 18.3183 25.5987 17.8437 27.0225 17.1003C29.0217 17.7555 30.2901 18.7299 30.2901 19.8219C30.2943 21.7917 26.1657 23.3877 21.0711 23.3877Z" fill="#F3F3F3"/>
<path d="M21.0376 17.7257C17.1022 17.7257 13.9102 16.4069 13.9102 14.7857C13.9102 13.1645 17.1022 11.8457 21.0376 11.8457C24.973 11.8457 28.165 13.1645 28.165 14.7857C28.165 16.4069 24.973 17.7257 21.0376 17.7257Z" fill="#F3F3F3"/>
</svg>

<svg xmlns="http://www.w3.org/2000/svg" width="42" height="42" fill="none"><path fill="#222" fill-rule="evenodd" d="M21 0c11.596 0 21 9.404 21 21s-9.404 21-21 21S0 32.596 0 21 9.404 0 21 0Z" clip-rule="evenodd"/><path fill="#F3F3F3" d="M21 30.152c-6.716 0-12.16-1.94-12.16-4.54 0-1.357 1.483-2.579 3.856-3.44 1.853 1.189 4.96 1.798 8.484 1.798 3.44 0 6.481-.744 8.35-1.882 2.239.853 3.629 2.041 3.629 3.352 0 2.604-5.443 4.712-12.16 4.712Z"/><path fill="#F3F3F3" d="M21.071 23.388c-5.09 0-9.219-1.596-9.219-3.566 0-1.092 1.273-2.07 3.268-2.722 1.424.744 3.557 1.218 5.951 1.218 2.394 0 4.528-.474 5.951-1.218 2 .655 3.268 1.63 3.268 2.722.004 1.97-4.124 3.566-9.219 3.566Z"/><path fill="#F3F3F3" d="M21.038 17.726c-3.936 0-7.128-1.32-7.128-2.94 0-1.621 3.192-2.94 7.128-2.94 3.935 0 7.127 1.319 7.127 2.94 0 1.62-3.192 2.94-7.127 2.94Z"/></svg>
